X:1
T:O SACRUM CONVIVIUM
T:Enrico Vercesi Portalbera, 19.IV.2014
T:Agli amici dei cori "Ticinum Gospel Choir" di Pavia, "Ottomisti" di Pavia e "Maestri Cantori" di Vigevano, con affetto, stima e riconoscenza.
T:O SACRUM CONVIVIUM
T:Archivio Personale Vercesi ©2014
T:Archivio Personale Vercesi ©2014
T:Archivio Personale Vercesi ©2014
T:Archivio Personale Vercesi ©2014
C:Enrico Vercesi
Z:Archivio Personale Vercesi ©2014
%%score [ 1 2 3 4 ]
L:1/8
Q:1/4=120
M:3/2
K:G
V:1 treble nm="Soprano" snm="S"
V:2 treble nm="Alto" snm="A"
V:3 treble-8 nm="Tenor" snm="T"
V:4 bass nm="Bass" snm="B"
V:1
"^Maestoso, adorante"!p! (G12- | G4 F4 G4) | G4 F4 G4 | A8 G4 | G12- | G12 | z4 (G4 A4) | B12- | %8
w: O|_ _ _|sa- crum con-|vi- vi-|um!|_|O _|sa-|
 B4 A4 B4 | d8 B4 | A12- | A4 A4 B4 | G8 G4 | (G4 F4) E4 | A12- | %15
w: * crum con-|vi- vi-|um,|_ in quo|Chri- stus|su- * mi-|tur:|
 A8"^aprendo intensamente"!mf! G4 |[K:Eb] G8 G4 | (c4 G4) c4 | B8 B4 | B4 E4 F4 | G8 G4 | %21
w: _ re-|co- li-|tur _ me-|mo- ri-|a pas- si-|o- nis|
 (G4 F4 G4) | B12- | B4 z4 G4 | d8 d4 | (d4 B4) d4 | c8 c4 | c4 E4 F4 | G8 G4 | (G4 F4 G4) | B12- | %31
w: e- * *|ius;|_ re-|co- li-|tur _ me-|mo- ri-|a pas- si-|o- nis|e- * *|ius;|
 B8 z4 | e8 e4 | (d4 e4) d4 | c8 c4 | c12- | !breath!c4 B4 A4 | B8 B4 | (d4 B4) d4 | c12- | %40
w: _|mens im-|ple- * tur|gra- ti-|a|_ et fu-|tu- rae|glo- * ri-|ae,|
 !breath!c4 B4 A4 | B8 B4 | (B4 E4) F4 | G12- | G4 E4 F4 | G8 G4 | (G4 F4 E4) | G12- | G4 E4 F4 | %49
w: _ et fu-|tu- rae|glo- * ri-|ae,|_ no- bis|pi- gnus|da- * *|tur,|_ no- bis|
 G8 G4 | (c4 B4 A4) | B12- | B8 z4 |[K:G] z12 | z4"^cresc." A4 B4 | (B4 A4 G4) | A4 B4 c4 | (d12- | %58
w: pi- gnus|da- * *|tur.|_||Al- le-|lu- * *|ia, al- le-|lu-|
 d4 B4 d4) | c12- | c4 B4 A4 | (B8 G4) | E12- | !breath!E4"^dim." F4 G4 | (G4 F4 G4) | G12- | %66
w: |ia,|_ al- le-|lu- *|ia,|_ al- le-|lu- * *|ia,|
 !breath!G4 F4 G4 |"^rit." (G12 | E12) | D12- | !fermata!D12 |] %71
w: _ al- le-|lu-||ia!|_|
V:2
 z12!p! | D12 | (C8 D4) | E8 E4 | (E4 D4) C4 | D12 | E12 | (F4 G4 F4 | E12 | F8) G4 | (G4 F4) E4 | %11
w: |O|sa- *|crum con-|vi- * vi-|um!|O|sa- * *||crum con-|vi- * vi-|
 F4 F4 F4 | (F4 E4) E4 | (E4 D4) (C2 D2) | (E4 G4 E4 | F8) z4 |[K:Eb] z8!mf! E4 | E8 F4 | F8 F4 | %19
w: um, in quo|Chri- * stus|su- * mi- *|tur: _ _|_|re-|co- li-|tur me-|
 E8 E4 | E4 F4 G4 | E8 E4 | (G4 A4 G4) | G8 G4 | (G4 A4) B4 | A8 G4 | G8 A4 | F4 E4 E4 | E8 E4 | %29
w: mo- ri-|a pas- si-|o- nis|e- * *|ius, re-|co- * li-|tur me-|mo- ri-|a pas- si-|o- nis|
 (E4 D4 E4) | F12 | G12 | G8 B4 | B12 | A12 | (A4 E4) G4 | (A12 | !breath!G4) A4 B4 | A8 A4 | %39
w: e- * *||ius;|mens im-|ple-|tur|gra- * ti-|a|_ et fu-|tu- rae|
 (G4 F4) E4 | F12- | !breath!F4 G4 F4 | E8 E4 | (F4 E4) D4 | E4 C4 D4 | (E12- | E4 D4) C4 | %47
w: glo- * ri-|ae,|_ et fu-|tu- rae|glo- * ri-|ae, no- bis|pi-|* * gnus|
 (B,4 C4 D4) | C4 C4 C4 | D8 D4 | (A4 G4 F4) | F12- | F4 z4"^cresc." D4 |[K:G] (D4 E4) F4 | G8 F4 | %55
w: da- * *|tur, no- bis|pi- gnus|da- * *|tur.|_ Al-|le- * lu-|ia, al-|
 E8 E4 | F12- | !breath!F4 F4 A4 | G12 | !breath!G4 E4 G4 | F12 | !breath!G4 F4 E4 | (E4 D4 C4) | %63
w: le- lu-|ia,|_ al- le-|lu-|ia, al- le-|lu-|ia, al- le-|lu- * *|
 C12 |"^dim." D8 D4 | (E8 D4 | E12) | !breath!D4 E4 D4 | (C4 D4 C4 | B,8 !tenuto!C4) | %70
w: ia,|al- le-|lu- *||ia, al- le-|lu- * *||
 !fermata!B,12 |] %71
w: ia.|
V:3
 z12!p! | B12 | (A8 B4) | c8 d4 | (c4 B4) A4 | B12 | (G4 B8) | (d4 e4 d4 | c12 | A8) d4 | %10
w: |O|sa- *|crum con-|vi- * vi-|um!|O _|sa- * *||crum con-|
 (e4 d4) c4 | d4 c4 B4 | B8 B4 | (c4 A4) G4 | (c4 e4 c4 | d8) z4 |[K:Eb] z8!mf! G4 | (G4 c4) c4 | %18
w: vi- * vi-|um, in quo|Chri- stus|su- * mi-|tur: _ _|_|re-|co- * li-|
 d8 d4 | c8 c4 | c4 d4 e4 | c8 c4 | (d4 e4 d4) | c8 B4 | (B4 c4) d4 | (f4 e4) d4 | e8 e4 | %27
w: tur me-|mo- ri-|a pas- si-|o- nis|e- * *|ius, re-|co- * li-|tur _ me-|mo- ri-|
 d4 B4 c4 | c8 c4 | (c12 | e8 d4) | e12 | e8 g4 | f12 | e12 | (e4 c4) e4 | (c12 | %37
w: a pas- si-|o- nis|e-||ius;|mens im-|ple-|tur|gra- * ti-|a|
 !breath!B4) f4 e4 | e8 e4 | (e4 d4) c4 | d12- | !breath!d4 e4 d4 | c8 c4 | (d4 c4) B4 | c4 G4 A4 | %45
w: _ et fu-|tu- rae|glo- * ri-|ae,|_ et fu-|tu- rae|glo- * ri-|ae, no- bis|
 c12- | c8 G4 | (G4 A4 G4) | A4 A4 A4 | (B12 | e8) c4 | (e4 d4 c4) | d8 z4 |[K:G]"^cresc." B12 | %54
w: pi-|* gnus|da- * *|tur, no- bis|pi-|* gnus|da- * *|tur.|Al-|
 B12 | (c8 B4 | d12) | !breath!B4 d4 f4 | e12 | !breath!e4 c4 e4 | d12 | !breath!d4 d4 d4 | %62
w: le-|lu- *||ia, al- le-|lu-|ia, al- le-|lu-|ia, al- le-|
 c4 B4 A4 | A12 |"^dim." B8 B4 | (d4 c4 B4 | c12) | !breath!B4 c4 B4 | (A4 B4 A4 | G8 !tenuto!A4) | %70
w: lu- * *|ia,|al- le-|lu- * *||ia, al- le-|lu- * *||
 !fermata!G12 |] %71
w: ia.|
V:4
 z12!p! | G,12 | G,4 G,4 G,4 | G,8 G,4 | G,12- | !breath!G,4 (G,4 F,4) | (E,12 | B,,12) | C,8 C,4 | %9
w: |O|sa- crum con-|vi- vi-|um!|_ O _|sa-||crum con-|
 (B,,12 | C,8 E,4) | D,4 D,4 ^D,4 | E,8 D,4 | (C,4 D,4) E,4 | D,12- | D,8 z4 |[K:Eb] z4!mf! E,8 | %17
w: vi-|* vi-|um, in quo|Chri- stus|su- * mi-|tur:|_|re-|
 C,8 C,4 | G,8 G,4 | A,8 A,4 | C,4 C,4 C,4 | A,8 A,4 | G,12 | (C,4 E,4) G,4 | G,8 F,4 | A,8 B,4 | %26
w: co- li-|tur me-|mo- ri-|a pas- si-|o- nis|e-|ius, _ re-|co- li-|tur me-|
 C8 A,4 | B,4 G,4 F,4 | C,8 C,4 | (A,8 C4 | B,12) | (E,8 D,4) | C,8 C,4 | G,8 G,4 | A,8 A,4 | %35
w: mo- ri-|a pas- si-|o- nis|e- *||ius; _|mens im|ple- tur|gra- ti-|
 (A,8 G,4 | !breath!F,4) F,4 F,4 | G,8 G,4 | A,8 A,4 | C12 | A,8 A,4 | G,8 G,4 | A,8 A,4 | (G,12 | %44
w: a _|_ et fu-|tu- rae|glo- ri-|ae,|et fu-|tu- rae|glo- ri-|ae,|
 A,4) C,4 A,,4 | G,,8 C,4 | A,,12 | (C,8 B,,4) | A,,8 A,,4 | G,,8 A,,4 | (F,,4 G,,4 A,,4) | %51
w: _ no- bis|pi- gnus|da-|tur, _|no- bis|pi- gnus|da- * *|
 B,,12- | B,,8 z4 |[K:G]"^cresc." G,12 | E,12 | (C,8 E,4) | D,8 C,4 | B,,12 | E,12 | A,,12 | D,12 | %61
w: tur.|_|Al-|le-|lu- *|ia, al-|le-|lu-|ia,|al-|
 G,,12 | C,12 | A,,12 |"^dim." (E,8 D,4) | C,12 | (A,,8 C,4) | G,,12- | G,,12- | G,,12- | %70
w: le-|lu-|ia,|al- *|le-|lu- *|ia!|_||
 !fermata!G,,12 |] %71
w: |

